svg/color/crclon.svg

<svg width="40" height="40" viewBox="0 0 40 40" fill="none" xmlns="http://www.w3.org/2000/svg">
<g clip-path="url(#clip0_820_3826)">
<path d="M20 0C31.0457 0 40 8.9543 40 20C40 31.0457 31.0457 40 20 40C8.95431 40 7.90517e-06 31.0457 0 20C6.58765e-07 8.95431 8.95431 1.97595e-06 20 0Z" fill="#E7DDFC"/>
<path d="M26 6C30.4183 6 34 9.58172 34 14V26C34 30.4183 30.4183 34 26 34H14C9.58172 34 6 30.4183 6 26V14C6 9.58172 9.58172 6 14 6H26Z" fill="#8656EF"/>
<g clip-path="url(#clip1_820_3826)">
<path d="M27.9518 15.4497L27.5542 14.7649C27.4438 14.5662 27.2008 14.4999 27.002 14.6103C26.9799 14.6324 26.9358 14.6545 26.9137 14.6766L26.008 15.5822C25.8755 15.7147 25.8534 15.9356 25.9639 16.0902C26.2952 16.5983 26.5603 17.1505 26.759 17.7248C28.0181 21.4576 26.008 25.4998 22.2752 26.7588C21.5462 27.0018 20.7732 27.1343 20.0001 27.1343C18.8294 27.1343 17.6808 26.8471 16.6648 26.2949L18.2109 24.7488C20.8394 25.7427 23.7771 24.4175 24.7711 21.789C25.2571 20.4858 25.1908 19.028 24.5944 17.7689C24.5061 17.5701 24.2631 17.4818 24.0422 17.5701C23.998 17.5922 23.9539 17.6143 23.9318 17.6585L23.0041 18.5641C22.8936 18.6745 22.8715 18.8071 22.8936 18.9396L22.982 19.2709C23.3575 20.9054 22.3414 22.5621 20.7069 22.9376C19.9559 23.1143 19.1607 23.0038 18.4981 22.6062L18.1005 22.3633C17.9459 22.2749 17.7471 22.297 17.6146 22.4295L13.8596 26.1845C13.705 26.3391 13.705 26.6042 13.8596 26.7588C13.8817 26.7809 13.8817 26.7809 13.9038 26.803L14.456 27.2226C16.0242 28.5038 17.9901 29.1664 20.0001 29.1664C25.0583 29.1664 29.1666 25.058 29.1666 19.9777C29.1666 18.3874 28.747 16.8412 27.9518 15.4497Z" fill="white"/>
<path d="M25.5661 12.7328C23.9757 11.4959 22.0099 10.8333 19.9999 10.8333C14.9417 10.8333 10.8333 14.9416 10.8333 20.0219C10.8333 21.6123 11.253 23.1805 12.0261 24.55L12.4237 25.2347C12.5341 25.4335 12.7771 25.4998 12.9759 25.3893C12.9979 25.3672 13.0421 25.3451 13.0642 25.3231L13.9698 24.4174C14.1024 24.2849 14.1244 24.064 14.014 23.9094C13.6827 23.4014 13.4176 22.8492 13.2188 22.2749C11.9598 18.542 13.9698 14.4999 17.7027 13.2409C18.4316 12.9979 19.2047 12.8654 19.9778 12.8654C21.1485 12.8654 22.297 13.1525 23.3131 13.7047L21.7669 15.2509C19.1384 14.2569 16.2007 15.5822 15.2068 18.2107C14.9859 18.785 14.8754 19.4034 14.8754 20.0219C14.8754 20.1103 14.8975 20.4858 14.8975 20.552C14.9638 21.1263 15.1184 21.7006 15.3835 22.2307C15.4718 22.4295 15.7148 22.5179 15.9357 22.4295C15.9798 22.4074 16.024 22.3853 16.0461 22.3412L16.9738 21.4135C17.0842 21.303 17.1063 21.1705 17.0842 21.038L17.018 20.7066C16.6425 19.0721 17.6585 17.4155 19.2931 17.04C20.0441 16.8633 20.8392 16.9737 21.5019 17.3713L21.8995 17.6143C22.0541 17.7027 22.2529 17.6806 22.3854 17.548L26.1404 13.7931C26.295 13.6384 26.295 13.3734 26.1404 13.2188C26.1183 13.1967 26.1183 13.1967 26.0962 13.1746L25.5661 12.7328Z" fill="white"/>
</g>
</g>
<defs>
<clipPath id="clip0_820_3826">
<rect width="40" height="40" fill="white"/>
</clipPath>
<clipPath id="clip1_820_3826">
<rect width="20" height="20" fill="white" transform="translate(10 10)"/>
</clipPath>
</defs>
</svg>

<svg xmlns="http://www.w3.org/2000/svg" width="40" height="40" fill="none" viewBox="0 0 40 40"><g clip-path="url(#crclon_svg-a)"><path fill="#E7DDFC" d="M20 0c11.046 0 20 8.954 20 20s-8.954 20-20 20S0 31.046 0 20 8.954 0 20 0"/><path fill="#8656EF" d="M26 6a8 8 0 0 1 8 8v12a8 8 0 0 1-8 8H14a8 8 0 0 1-8-8V14a8 8 0 0 1 8-8z"/><g fill="#fff" clip-path="url(#crclon_svg-b)"><path d="m27.952 15.45-.398-.685a.4.4 0 0 0-.552-.155c-.022.022-.066.045-.088.067l-.906.905a.4.4 0 0 0-.044.508 7.5 7.5 0 0 1 .795 1.635c1.26 3.733-.751 7.775-4.484 9.034a7.2 7.2 0 0 1-2.275.375c-1.17 0-2.32-.287-3.335-.84l1.546-1.545a5.09 5.09 0 0 0 6.56-2.96 5.2 5.2 0 0 0-.177-4.02c-.088-.199-.33-.287-.552-.199-.044.022-.088.044-.11.088l-.928.906a.41.41 0 0 0-.11.376l.088.33c.376 1.635-.64 3.292-2.275 3.668a2.97 2.97 0 0 1-2.209-.332l-.398-.243a.4.4 0 0 0-.485.067l-3.755 3.755a.414.414 0 0 0 0 .574l.044.044.552.42c1.568 1.28 3.534 1.943 5.544 1.943 5.058 0 9.167-4.108 9.167-9.188 0-1.59-.42-3.137-1.215-4.528m-2.386-2.717a9.07 9.07 0 0 0-5.566-1.9c-5.058 0-9.167 4.109-9.167 9.189 0 1.59.42 3.159 1.193 4.528l.398.685a.4.4 0 0 0 .552.154c.022-.022.066-.044.088-.066l.906-.906a.4.4 0 0 0 .044-.508 7.5 7.5 0 0 1-.795-1.634c-1.26-3.733.75-7.775 4.484-9.034a7.2 7.2 0 0 1 2.275-.376c1.17 0 2.319.287 3.335.84l-1.546 1.546a5.09 5.09 0 0 0-6.892 4.77c0 .09.023.465.023.531.066.574.22 1.149.486 1.679.088.198.33.287.552.198.044-.022.088-.044.11-.088l.928-.928a.41.41 0 0 0 .11-.375l-.066-.331c-.376-1.635.64-3.291 2.275-3.667a2.97 2.97 0 0 1 2.209.331l.398.243a.4.4 0 0 0 .485-.066l3.755-3.755a.414.414 0 0 0 0-.574l-.044-.044z"/></g></g><defs><clipPath id="crclon_svg-a"><path fill="#fff" d="M0 0h40v40H0z"/></clipPath><clipPath id="crclon_svg-b"><path fill="#fff" d="M10 10h20v20H10z"/></clipPath></defs></svg>
